client/public/assets/icons/standard/live_chat.svg

<?xml version="1.0"?><svg xmlns="http://www.w3.org/2000/svg" viewBox="0 0 100 100" width="100" height="100"><title></title><desc></desc><path fill="#fff" d="m49.5 21.9c-16.7 0-30 12.3-30 27.4 0 4.8 1.4 9.3 3.6 13.3 0.4 0.6 0.5 1.4 0.3 2.1l-3.9 10.7c-0.4 1 0.6 1.9 1.6 1.6l10.9-4.1c0.6-0.3 1.4-0.1 2.1 0.3 4.5 2.5 9.9 4 15.7 4 16.4-0.2 29.8-12.3 29.8-27.6-0.1-15.5-13.5-27.7-30.1-27.7z m-15 32.6c-2.8 0-5-2.3-5-5 0-2.8 2.3-5 5-5 2.8 0 5 2.3 5 5s-2.3 5-5 5z m15 0c-2.8 0-5-2.3-5-5 0-2.8 2.3-5 5-5 2.8 0 5 2.3 5 5s-2.2 5-5 5z m15.1 0c-2.8 0-5-2.3-5-5 0-2.8 2.3-5 5-5s5 2.3 5 5-2.3 5-5 5z"></path></svg>

<?xml version="1.0" encoding="utf-8"?>
<!-- Generator: Adobe Illustrator 21.0.0, SVG Export Plug-In . SVG Version: 6.00 Build 0)  -->
<svg version="1.1" id="Layer_1" xmlns="http://www.w3.org/2000/svg" xmlns:xlink="http://www.w3.org/1999/xlink" x="0px" y="0px"
	 viewBox="0 0 100 100" width="100" height="100" enable-background="new 0 0 100 100" xml:space="preserve">
<title></title>
<desc></desc>
<path fill="#FFFFFF" d="M49.5,21.9c-16.7,0-30,12.3-30,27.4c0,4.8,1.4,9.3,3.6,13.3c0.4,0.6,0.5,1.4,0.3,2.1l-3.9,10.7
	c-0.4,1,0.6,1.9,1.6,1.6L32,72.9c0.6-0.3,1.4-0.1,2.1,0.3c4.5,2.5,9.9,4,15.7,4C66.2,77,79.6,64.9,79.6,49.6
	C79.5,34.1,66.1,21.9,49.5,21.9z M34.5,54.5c-2.8,0-5-2.3-5-5c0-2.8,2.3-5,5-5c2.8,0,5,2.3,5,5S37.2,54.5,34.5,54.5z M49.5,54.5
	c-2.8,0-5-2.3-5-5c0-2.8,2.3-5,5-5c2.8,0,5,2.3,5,5S52.3,54.5,49.5,54.5z M64.6,54.5c-2.8,0-5-2.3-5-5c0-2.8,2.3-5,5-5
	c2.7,0,5,2.3,5,5S67.3,54.5,64.6,54.5z"/>
</svg>
